svgs/regular/scanner-gun.svg

<svg xmlns="http://www.w3.org/2000/svg" viewBox="0 0 576 512"><!--! Font Awesome Pro 6.6.0 by @fontawesome - https://fontawesome.com License - https://fontawesome.com/license (Commercial License) Copyright 2024 Fonticons, Inc. --><path d="M112 80c-35.3 0-64 28.7-64 64s28.7 64 64 64l120.4 0 55.6 0 16 0 0-128L112 80zM79.1 251.1C33.3 237.1 0 194.4 0 144C0 82.1 50.1 32 112 32l192 0c26.5 0 48 21.5 48 48l0 128c0 26.5-21.5 48-48 48l-44 0L144.3 454.4c-13.4 23-42.9 30.7-65.8 17.2L25 440.1C2.3 426.8-5.4 397.6 7.8 374.8L79.1 251.1zm52.6 4.9L49.4 398.8l53.5 31.4L204.4 256l-72.7 0zM440 32l112 0c13.3 0 24 10.7 24 24s-10.7 24-24 24L440 80c-13.3 0-24-10.7-24-24s10.7-24 24-24zM416 216c0-13.3 10.7-24 24-24l112 0c13.3 0 24 10.7 24 24s-10.7 24-24 24l-112 0c-13.3 0-24-10.7-24-24zm24 216l112 0c13.3 0 24 10.7 24 24s-10.7 24-24 24l-112 0c-13.3 0-24-10.7-24-24s10.7-24 24-24zM416 144c0-8.8 7.2-16 16-16l128 0c8.8 0 16 7.2 16 16s-7.2 16-16 16l-128 0c-8.8 0-16-7.2-16-16zm16 144l128 0c8.8 0 16 7.2 16 16s-7.2 16-16 16l-128 0c-8.8 0-16-7.2-16-16s7.2-16 16-16zm-16 80c0-8.8 7.2-16 16-16l128 0c8.8 0 16 7.2 16 16s-7.2 16-16 16l-128 0c-8.8 0-16-7.2-16-16z"/></svg>

<svg xmlns="http://www.w3.org/2000/svg" viewBox="0 0 576 512"><!--! Font Awesome Pro 6.4.0 by @fontawesome - https://fontawesome.com License - https://fontawesome.com/license (Commercial License) Copyright 2023 Fonticons, Inc. --><path d="M112 80c-35.3 0-64 28.7-64 64s28.7 64 64 64H232.4 288h16V80H112zM79.1 251.1C33.3 237.1 0 194.4 0 144C0 82.1 50.1 32 112 32H304c26.5 0 48 21.5 48 48V208c0 26.5-21.5 48-48 48H260L144.3 454.4c-13.4 23-42.9 30.7-65.8 17.2L25 440.1C2.3 426.8-5.4 397.6 7.8 374.8L79.1 251.1zm52.6 4.9L49.4 398.8l53.5 31.4L204.4 256H131.7zM440 32H552c13.3 0 24 10.7 24 24s-10.7 24-24 24H440c-13.3 0-24-10.7-24-24s10.7-24 24-24zM416 216c0-13.3 10.7-24 24-24H552c13.3 0 24 10.7 24 24s-10.7 24-24 24H440c-13.3 0-24-10.7-24-24zm24 216H552c13.3 0 24 10.7 24 24s-10.7 24-24 24H440c-13.3 0-24-10.7-24-24s10.7-24 24-24zM416 144c0-8.8 7.2-16 16-16H560c8.8 0 16 7.2 16 16s-7.2 16-16 16H432c-8.8 0-16-7.2-16-16zm16 144H560c8.8 0 16 7.2 16 16s-7.2 16-16 16H432c-8.8 0-16-7.2-16-16s7.2-16 16-16zm-16 80c0-8.8 7.2-16 16-16H560c8.8 0 16 7.2 16 16s-7.2 16-16 16H432c-8.8 0-16-7.2-16-16z"/></svg>
